X: 35
T:Boys of the Town, The
T:Milltown Jig, The
T:Matt Molloy's Jig
M:6/8
L:1/8
R:Double Jig
K:G
D[|:GAG GBd|edB dBA|GAG GBd|edB AFD|!
GAG GBd|edB gfg|edB AGA|1BGF G2D:|2BGF G2B|]!
def gfg|afd edB|def gfg|afd e2B|!
def gfg|afd efg|edB AGA|BGF G2B||!
def gfg|afd edB|def gfg|afd e2B|!
def gbb|faa efg|edB AGA|BGF G2D|]!
